d1 $ weave 4 (speed $ (1+) <$> sinewave1) [density 4 $ every 5 ((0.25 <~) . rev) $ striate 16 $ sound "[bd sn/2]/2", sound "bd [~ hc]*3"]
  |=| crush "4"

d2 $ (echo (1/32) $ whenmod 8 6 (rev) $ density 4 $ striate 4 $ sound $ samples "[bd [sn]*3]*1/4" (slow 13 $ run 12)) |+| speed "2"

d1 $ silence


hush
